X:1
T:Mazurka : Bouzou 95
E:12
Z:Roger Ngaret (94-95)
R:mazurka
C:Trad.
S:
A:Bretagne
M:3/4
L:1/16
K:C
Q:1/4=130
G2 c2d2 | "C"e4 e2G2 c2e2 | "G"d4 d2B2 d2B2 | "F"c4 A2G2 A2B2 | \
"C"c2d2 c2d2 e2f2 | e4 e2G2 c2e2 | "G"d4 d2B2 d2B2 | "F"c4 A2G2 A2B2 | \
"C"c2d2 c4 :: c2c2 | "Am"A4 A2d2 A2d2 | "G"G4 G2c2 G2c2 | d2c2 B2c2 d2f2 | \
"C"e4 c4 c2c2 | "Am"A4 A2d2 A2d2 | "G"G4 G2c2 G2c2 | d2c2 B2c2 d2B2 | \
"C"c8 c2c2 | "Am"A4 A2d2 A2d2 | "G"G4 G2c2 G2c2 | d2c2 B2c2 d2f2 | \
"C"e4 c4 e2g2 | "F"a4 a2f2 a2f2 | "G"g4 g2e2 g2e2 | \
"D"f2e2 d2c2 B2d2 | "C"c8 :|
